!!!SOCIAL_FUNCTION:	songs connected with ceremonies
!!!PDT:	1929
!!!OTL: No_109_Song_While_Tiswin_is_Distributed.krn
!!!REG: Southwest
!!!LANG: Non-Tone
!!!LING_GROUP: Uto-Aztecan
**kern
*staff1
=1-
*clefF4
*k[f#c#g#d#a#]
*M3/4
2F#\
4C#\
=2
4BB\
4BB\
4BB\
=3||
*M2/4
(4E\
4C#\)
=4
2C#\
=5
4BB\
4r
=6
4C#\
4C#\
=7
4E\
4BB\
=8
(4GG#\
8.FF#\L)
16BB\Jk
=9
2BB\
=10||
*M3/4
4BB\
4r
4FF#\
=11
4.C#\
8BB\
4C#\
=12||
*M2/4
8C#\L
8BB\J
4BB\
=13
8GG#\L
8FF#\J
4FF#\
=14
[2BB\
=15
4BB\]
4BB\
=16||
*M3/4
4BB\
4.BB\
8FF#\
=17||
*M2/4
4BB\
4GG#\
=18
8EE/L
8CC#/J
4CC#/
=19
2FF#\
=20
2FF#\
=21
4FF#\
4r
==
*-
